src/images/tic-tac.svg

<svg id="Layer_5" enable-background="new 0 0 64 64" height="512" viewBox="0 0 64 64" width="512" xmlns="http://www.w3.org/2000/svg"><g><path d="m40.84 39.973h2v2.376h-2z" transform="matrix(.707 -.707 .707 .707 -16.85 41.667)"/><path d="m45.047 42.951-1.412 1.416c1.701 1.698 3.961 2.633 6.363 2.633 4.963 0 9.001-4.037 9.002-9h-2c-.001 3.86-3.142 7-7.002 7-1.868 0-3.627-.728-4.951-2.049z"/><path d="m63 37.998c0-3.471-1.352-6.735-3.805-9.189l-23.972-23.996c-2.456-2.459-5.722-3.813-9.198-3.813h-.023c-7.169 0-13.002 5.833-13.002 13.025 0 3.476 1.354 6.743 3.813 9.199l15.791 15.776h-19.604c-6.617 0-12 5.383-12 12s5.383 12 12 12h34c6.617 0 12-5.383 12-12 0-1.083-.16-2.165-.458-3.226 2.725-2.385 4.458-5.879 4.458-9.776zm-2 0c0 6.066-4.936 11.002-11.002 11.002-2.937 0-5.698-1.143-7.776-3.219l-11.3-11.289 15.57-15.571 11.289 11.3c2.075 2.078 3.219 4.839 3.219 7.777zm-46-23.996c0-6.066 4.936-11.002 11.002-11.002h.023c2.94 0 5.704 1.146 7.783 3.226l11.27 11.281-15.571 15.572-11.281-11.27c-2.08-2.079-3.226-4.843-3.226-7.807zm-12 36.998c0-5.514 4.486-10 10-10h16v20h-16c-5.514 0-10-4.486-10-10zm54 0c0 5.514-4.486 10-10 10h-16v-20h3.606l6.202 6.196c2.456 2.453 5.72 3.804 9.19 3.804 2.494 0 4.817-.718 6.798-1.94.13.643.204 1.291.204 1.94z"/><path d="m30.979 9.053.653.654 1.414-1.414-.653-.654c-1.701-1.701-3.971-2.639-6.391-2.639-3.195 0-6.18 1.724-7.788 4.499l1.73 1.003c1.252-2.16 3.574-3.502 6.058-3.502 1.886 0 3.653.729 4.977 2.053z"/><path d="m5 51h2c0-3.309 2.691-6 6-6h2v-2h-2c-4.411 0-8 3.589-8 8z"/><path d="m17 43h2v2h-2z"/><path d="m37 57h2v2h-2z"/><path d="m33 57h2v2h-2z"/><path d="m41 57h2v2h-2z"/></g></svg>

<?xml version="1.0" encoding="UTF-8" standalone="no"?>
<svg
   xmlns:dc="http://purl.org/dc/elements/1.1/"
   xmlns:cc="http://creativecommons.org/ns#"
   xmlns:rdf="http://www.w3.org/1999/02/22-rdf-syntax-ns#"
   xmlns:svg="http://www.w3.org/2000/svg"
   xmlns="http://www.w3.org/2000/svg"
   xmlns:sodipodi="http://sodipodi.sourceforge.net/DTD/sodipodi-0.dtd"
   xmlns:inkscape="http://www.inkscape.org/namespaces/inkscape"
   id="Layer_5"
   enable-background="new 0 0 64 64"
   height="512"
   viewBox="0 0 64 64"
   width="512"
   version="1.1"
   sodipodi:docname="tic-tac.svg"
   inkscape:version="1.0.2 (e86c870879, 2021-01-15)">
  <metadata
     id="metadata27">
    <rdf:RDF>
      <cc:Work
         rdf:about="">
        <dc:format>image/svg+xml</dc:format>
        <dc:type
           rdf:resource="http://purl.org/dc/dcmitype/StillImage" />
      </cc:Work>
    </rdf:RDF>
  </metadata>
  <defs
     id="defs25" />
  <sodipodi:namedview
     pagecolor="#ffffff"
     bordercolor="#666666"
     borderopacity="1"
     objecttolerance="10"
     gridtolerance="10"
     guidetolerance="10"
     inkscape:pageopacity="0"
     inkscape:pageshadow="2"
     inkscape:window-width="3840"
     inkscape:window-height="2050"
     id="namedview23"
     showgrid="false"
     inkscape:zoom="2.2579398"
     inkscape:cx="256"
     inkscape:cy="306.98541"
     inkscape:window-x="-12"
     inkscape:window-y="-12"
     inkscape:window-maximized="1"
     inkscape:current-layer="Layer_5" />
  <g
     id="g20">
    <path
       d="m40.84 39.973h2v2.376h-2z"
       transform="matrix(.707 -.707 .707 .707 -16.85 41.667)"
       id="path2" />
    <path
       d="m45.047 42.951-1.412 1.416c1.701 1.698 3.961 2.633 6.363 2.633 4.963 0 9.001-4.037 9.002-9h-2c-.001 3.86-3.142 7-7.002 7-1.868 0-3.627-.728-4.951-2.049z"
       id="path4" />
    <path
       d="m 63,37.998 c 0,-3.471 -1.352,-6.735 -3.805,-9.189 L 35.223,4.813 C 32.767,2.354 29.501,1 26.025,1 H 26.002 C 18.833,1 13,6.833 13,14.025 c 0,3.476 1.354,6.743 3.813,9.199 L 32.604,39 H 13 C 6.383,39 1,44.383 1,51 1,57.617 6.383,63 13,63 H 47 C 53.617,63 59,57.617 59,51 59,49.917 58.84,48.835 58.542,47.774 61.267,45.389 63,41.895 63,37.998 Z m -2,0 C 61,44.064 56.064,49 49.998,49 47.061,49 44.3,47.857 42.222,45.781 l -11.3,-11.289 15.57,-15.571 11.289,11.3 C 59.856,32.299 61,35.06 61,37.998 Z M 15,14.002 C 15,7.936 19.936,3 26.002,3 h 0.023 c 2.94,0 5.704,1.146 7.783,3.226 L 46.492,18.921 30.922,34.492 18.226,21.809 C 16.146,19.73 15,16.966 15,14.002 Z M 3,51 C 3,45.486 7.486,41 13,41 H 31 V 61 H 13 C 7.486,61 3,56.514 3,51 Z m 54,0 c 0,5.514 -4.486,10 -10,10 H 31 V 41 h 3.606 l 6.202,6.196 c 2.456,2.453 5.72,3.804 9.19,3.804 2.494,0 4.817,-0.718 6.798,-1.94 C 56.926,49.703 57,50.351 57,51 Z"
       id="path6"
       sodipodi:nodetypes="sccsssccssssscsssccccssssccccsssccssssccccscs" />
    <path
       d="m30.979 9.053.653.654 1.414-1.414-.653-.654c-1.701-1.701-3.971-2.639-6.391-2.639-3.195 0-6.18 1.724-7.788 4.499l1.73 1.003c1.252-2.16 3.574-3.502 6.058-3.502 1.886 0 3.653.729 4.977 2.053z"
       id="path8" />
    <path
       d="m5 51h2c0-3.309 2.691-6 6-6h2v-2h-2c-4.411 0-8 3.589-8 8z"
       id="path10" />
    <path
       d="m17 43h2v2h-2z"
       id="path12" />
    <path
       d="m37 57h2v2h-2z"
       id="path14" />
    <path
       d="m33 57h2v2h-2z"
       id="path16" />
    <path
       d="m41 57h2v2h-2z"
       id="path18" />
  </g>
</svg>
